X: 1
T: Paddy Fahy's Reel
M: 4/4
L: 1/8
R: reel
K: Gmaj
BGBd c3 d|BGBd cAFA|BGBd c3 d|fgaf gedc|
BGBd c3 d|BGBd cAF2|fgaf gdeg|fdfa gdgb|
g3 a bgag|fddf ecce|g3 a bgag|fdde =f3 a|
g3 a bgag|fddf ecce|fddg e2 ag|fdfa gedc|
